X:12514
T:Over The Moor To Maggie
R:Reel
S:
H:
N:Great 2nd Part
D:Irish Dancing Tape (P. Acc)
Z:Adrian Scahill
M:4/4
L:1/8
K:G
G3A BABd|efge dBAG|EAAG ABAG|EAAG AcBA|\
G3A BABd|efge dBAG|EGGF GAGE|1 DGGF G4:|2 DGGF G2ga||\
bdgb a^dfa|gBeg =fdBd|eaa^g aba=g|eaag a2ga|\
bdgb a^dfa|gBeg =fdBd|eggf gage|1 dggf g2ga:|2 dggf g3f||\
ecc2 dBB2|cAA2 BAGF|EAA^G ABA=G|EAAG ABcd|\
ecc2 dBB2|cAA2 BAGF|EGGF GAGE|1 DGGF G4:||


